X:52
T:Shloymele, malkele
M:3/4
Z:SG
K:Dm
"Dm"A,2D2F2|A2F2D2|"Gm"(3CDC (B,4|B,4) (3B,A,G,|"Gm"G,2D2B,2|G,2D2B,2|"Dm"  (~D6|D4) B,2|
"F"A,2C2F2|"D7"A2G2^F2|"Gm"A,2 (B,4|B,4) B,2| B,2C2D2|"C7"F2E2D2|"A7"(~^C6|C4) (3^CDE:|
|:"Dm"A4 BA|A2G2F2|~A4 AA|A2G2F2|A2G2F2|"E7"D2^C2B,2|"A7"(~G6|G4) GA|"Gm"~E4 EF|
"A7"E2D2^C2|"Dm"D4 ED| D2^C2B,2| "Gm6" G2E2^C2|"A7"G2^C2A,2|1"Dm"(F6|F4)(3FGA:|2"Dm"(D6|D6)|]
